icons/svg/shopping/medical_supply.svg

<?xml version="1.0" encoding="UTF-8" standalone="no"?>
<!-- Created with Inkscape (http://www.inkscape.org/) -->

<svg
   xmlns:dc="http://purl.org/dc/elements/1.1/"
   xmlns:cc="http://creativecommons.org/ns#"
   xmlns:rdf="http://www.w3.org/1999/02/22-rdf-syntax-ns#"
   xmlns:svg="http://www.w3.org/2000/svg"
   xmlns="http://www.w3.org/2000/svg"
   xmlns:sodipodi="http://sodipodi.sourceforge.net/DTD/sodipodi-0.dtd"
   xmlns:inkscape="http://www.inkscape.org/namespaces/inkscape"
   version="1.0"
   width="580"
   height="580"
   id="svg2"
   sodipodi:version="0.32"
   inkscape:version="0.48.4 r9939"
   sodipodi:docname="medical_supply.svg"
   inkscape:output_extension="org.inkscape.output.svg.inkscape">
  <metadata
     id="metadata10">
    <rdf:RDF>
      <cc:Work
         rdf:about="">
        <dc:format>image/svg+xml</dc:format>
        <dc:type
           rdf:resource="http://purl.org/dc/dcmitype/StillImage" />
        <cc:license
           rdf:resource="http://web.resource.org/cc/PublicDomain" />
        <dc:language>en</dc:language>
        <dc:title />
      </cc:Work>
    </rdf:RDF>
  </metadata>
  <sodipodi:namedview
     inkscape:window-height="1004"
     inkscape:window-width="1920"
     inkscape:pageshadow="2"
     inkscape:pageopacity="0.0"
     guidetolerance="10.0"
     gridtolerance="10.0"
     objecttolerance="10.0"
     borderopacity="1.0"
     bordercolor="#666666"
     pagecolor="#ffffff"
     id="base"
     showgrid="false"
     inkscape:zoom="0.70710678"
     inkscape:cx="468.93758"
     inkscape:cy="321.99975"
     inkscape:window-x="1680"
     inkscape:window-y="0"
     inkscape:current-layer="svg2"
     inkscape:window-maximized="1" />
  <defs
     id="defs4">
    <clipPath
       id="clipoutline2"
       clipPathUnits="userSpaceOnUse">
      <path
         d="M 55.8,12 L 56.56,12.16 C 65.4,9.22 85.24,20.8 80.82,31.12 C 79.7,32.74 79.89,35.62 81.24,37.43 L 56.43,62.25 C 55.04,60.86 51.95,60.89 50.53,62.25 L 9.5,101.63 C 5.76,105.22 8.7,108.27 10.28,109.88 L 17.64,117.24 C 19.25,118.84 23.5,121 26.52,117.8 L 65.24,76.99 C 66.59,75.57 66.6,72.52 65.24,71.12 C 65.24,71.12 65.25,71.1 65.24,71.1 L 90.15,46.2 C 92.78,48.57 95.263827,48.774854 97.62,48.13 C 102.17057,46.884568 104.70725,51.336643 107.43,54.59 L 106.2,55.8 C 104.38,57.64 104.55,60.74 106.59,62.78 C 108.63,64.82 111.74,64.99 113.56,63.17 L 121.7,55.04 C 123.52,53.2 123.35,50.1 121.3,48.07 C 119.46,46.22 116.79,45.98 114.93,47.3 C 109.35,41.04 112.28,40.1 104.92,31.95 L 91.13,17.86 C 81.2,8.12 68.3,8.13 55.8,12 z"
         id="outline2" />
    </clipPath>
    <clipPath
       id="clipoutline1"
       clipPathUnits="userSpaceOnUse">
      <path
         d="M 22.42,17.2 L 35.38,30.15 L 32.88,38.93 L 24.1,41.43 L 11.14,28.47 L 5.28,34.33 L 20.17,55.79 L 37.73,52.45 L 99.36,118.07 C 108.8,127.58 121.53,113.32 112.7,105.2 L 46.85,42.92 L 50.86,25.16 L 28.72,10.89 L 22.42,17.2 z M 103.48,109.17 C 105.16,107.49 107.88,107.49 109.56,109.17 C 111.24,110.85 111.24,113.57 109.56,115.25 C 107.88,116.92 105.16,116.92 103.48,115.25 C 101.8,113.57 101.8,110.85 103.48,109.17 z"
         id="outline1" />
    </clipPath>
    <inkscape:perspective
       sodipodi:type="inkscape:persp3d"
       inkscape:vp_x="0 : 290 : 1"
       inkscape:vp_y="0 : 1000 : 0"
       inkscape:vp_z="580 : 290 : 1"
       inkscape:persp3d-origin="290 : 193.33333 : 1"
       id="perspective12" />
    <style
       type="text/css"
       id="style6">
   
    .fil0 {fill:#EF7900}
   
  </style>
    <inkscape:perspective
       id="perspective6807"
       inkscape:persp3d-origin="29.116032 : 19.410688 : 1"
       inkscape:vp_z="58.232063 : 29.116032 : 1"
       inkscape:vp_y="0 : 1000 : 0"
       inkscape:vp_x="0 : 29.116032 : 1"
       sodipodi:type="inkscape:persp3d" />
    <inkscape:perspective
       id="perspective6954"
       inkscape:persp3d-origin="290 : 193.33333 : 1"
       inkscape:vp_z="580 : 290 : 1"
       inkscape:vp_y="0 : 1000 : 0"
       inkscape:vp_x="0 : 290 : 1"
       sodipodi:type="inkscape:persp3d" />
    <marker
       viewBox="0 0 10 10"
       refY="5"
       refX="10"
       orient="auto"
       markerWidth="4"
       markerUnits="strokeWidth"
       markerHeight="3"
       id="ArrowStart">
      <path
         id="path2295"
         d="M 10 0 L 0 5 L 10 10 z" />
    </marker>
    <marker
       viewBox="0 0 10 10"
       refY="5"
       refX="0"
       orient="auto"
       markerWidth="4"
       markerUnits="strokeWidth"
       markerHeight="3"
       id="ArrowEnd">
      <path
         id="path2292"
         d="M 0 0 L 10 5 L 0 10 z" />
    </marker>
    <inkscape:perspective
       id="perspective7597"
       inkscape:persp3d-origin="178.5405 : 158.483 : 1"
       inkscape:vp_z="357.08099 : 237.7245 : 1"
       inkscape:vp_y="0 : 1000 : 0"
       inkscape:vp_x="0 : 237.7245 : 1"
       sodipodi:type="inkscape:persp3d" />
  </defs>
  <g
     id="g1327"
     transform="translate(0.5,-0.5)">
    <path
       d="M 66.275,1.768 C 24.94,1.768 1.704,23.139 1.704,66.804 l 0,450.123 c 0,40.844 20.894,62.229 62.192,62.229 l 452.024,0 c 41.307,0 62.229,-20.316 62.229,-62.229 l 0,-450.123 c 0,-42.601 -20.922,-65.036 -63.522,-65.036 -0.003,0 -448.494,-0.143 -448.352,0 z"
       style="fill:#111111;stroke:#eeeeee;stroke-width:3.40799999"
       id="path1329"
       inkscape:connector-curvature="0" />
  </g>
  <g
     id="g2319"
     transform="translate(879.29125,36.805119)">
    <path
       id="path2323"
       style="fill:#ffffff;stroke:none"
       d="" />
  </g>
  <g
     id="g2325"
     transform="translate(879.29125,36.805119)">
    <path
       id="path2329"
       style="fill:#ffffff;stroke:none"
       d="" />
  </g>
  <path
     inkscape:connector-curvature="0"
     style="fill:#ffffff;fill-opacity:0.75;stroke:none"
     d="m 443.12025,347.68954 c 0.71858,22.03138 -0.0655,8.49907 1.9624,26.19672 2.13013,18.58994 4.57682,23.3814 1.8612,58.62103 -5.74568,74.55956 -38.47688,112.27748 -38.47688,112.27748 0,0 -40.18179,-58.0298 -39.14226,-113.12502 0,-45.73944 15.21397,-43.89551 17.53397,-83.86369 z"
     id="path3-9"
     sodipodi:nodetypes="csscccc" />
  <path
     inkscape:connector-curvature="0"
     d="m 414.50607,45.787747 0,0 c -22.95376,0 -39.28887,14.809358 -39.28887,43.916283 l -0.20176,208.32843 c 2e-5,12.47437 5.36132,21.94276 5.36132,21.94276 l 67.75178,0.20998 c 0,0 8.01346,-9.67854 7.99017,-22.15276 L 455.73365,91.7575 C 455.67544,60.571949 437.45981,45.787747 414.50607,45.787747 z m 22.89596,233.856643 -44.37724,0 0,-22.86973 44.37726,0 z m 10e-6,-51.97664 -44.37725,-1e-5 0,-22.86971 44.37726,0 z"
     id="path5-1"
     sodipodi:nodetypes="ccccccssccccccccccc"
     style="fill:#ffffff;fill-opacity:1" />
  <path
     inkscape:connector-curvature="0"
     d="m 144.69524,145.46809 c 10e-6,-20.65854 10e-6,-72.391319 0.0167,-73.197436 -0.006,-6.323733 2.72581,-12.266941 7.68789,-16.733112 4.96762,-4.471178 11.56517,-6.924566 18.59106,-6.929572 7.02589,-0.0051 13.63457,2.458394 18.60776,6.934578 4.95651,4.461165 7.68788,10.404373 7.70456,16.738126 0,0.851173 -0.0111,52.603986 -0.0168,73.187416 z"
     id="path3"
     style="fill:#ffffff;fill-opacity:0.82539685;stroke:none"
     sodipodi:nodetypes="ccsssccc" />
  <path
     inkscape:connector-curvature="0"
     d="m 170.98533,546.58216 c -15.53707,0.005 -30.14513,-5.43251 -41.14291,-15.33117 -10.98108,-9.88366 -17.02791,-23.03683 -17.03347,-37.03117 0,-0.48065 0.006,-1.94768 0,-4.17576 l 19.23079,0.005 c 4.35016,10e-6 7.86589,-3.16436 7.86589,-7.07978 1e-5,-1.9627 -0.87893,-3.73516 -2.30302,-5.01693 -1.42408,-1.28176 -3.39334,-2.07285 -5.56287,-2.07285 l -19.22523,-1e-5 c -1e-5,-7.06976 0,-15.86191 0,-25.89577 l 30.35095,0 c 4.35016,0 7.86589,-3.16437 7.86589,-7.07978 0,-1.9527 -0.87893,-3.72514 -2.30302,-5.00691 -1.4241,-1.28177 -3.39334,-2.07286 -5.56287,-2.07286 l -30.35095,0 c 0.006,-8.15627 0,-16.85329 -1e-5,-25.89577 l 19.22525,-2e-5 c 4.35015,2e-5 7.86589,-3.16436 7.86588,-7.07977 1e-5,-1.95269 -0.87893,-3.72515 -2.30302,-5.00692 -1.42408,-1.28177 -3.39334,-2.07286 -5.56287,-2.07286 l -19.22524,0 c 1e-5,-8.50174 1e-5,-17.17372 1e-5,-25.89576 l 30.35095,0 c 4.35016,0 7.86589,-3.16437 7.86589,-7.07979 0,-1.95269 -0.87893,-3.72514 -2.30302,-5.00691 -1.4241,-1.28178 -3.39334,-2.07286 -5.56287,-2.07286 l -30.35095,0 c 0,-8.73207 0,-17.41406 -1e-5,-25.89578 l 19.22525,0 c 4.35015,0 7.86589,-3.16437 7.86588,-7.07978 1e-5,-1.95269 -0.87893,-3.72514 -2.30302,-5.00692 -1.42408,-1.28176 -3.39334,-2.07285 -5.56287,-2.07285 l -19.22524,0 c 0,-9.07254 1e-5,-17.75452 1e-5,-25.89578 l 30.35095,0 c 4.35016,0 7.86589,-3.16436 7.86589,-7.07978 0,-1.9527 -0.87893,-3.72514 -2.30302,-5.00691 -1.4241,-1.28177 -3.39334,-2.07286 -5.56287,-2.07286 l -30.35095,0 -1e-5,-25.89577 19.22524,0 c 4.35016,0 7.8659,-3.16438 7.86589,-7.07979 1e-5,-1.95269 -0.87893,-3.72514 -2.30302,-5.00691 -1.42409,-1.28177 -3.39334,-2.07287 -5.56286,-2.07287 l -19.22525,0 -0.006,-6.11344 c 0,-11.22551 8.73369,-22.441 17.17811,-33.29599 7.22058,-9.28282 14.68594,-18.87608 14.69705,-26.60675 l 0,-9.90368 18.4242,0 0,251.92799 c 0,3.91541 3.51573,7.07978 7.86588,7.07978 4.35015,0 7.86589,-3.16437 7.86589,-7.07978 l 0.006,-251.933 18.42976,0.005 c 0,3.82529 0,7.25002 0,9.89367 1e-5,7.52039 7.41529,17.0886 14.58582,26.33638 8.5056,10.96014 17.29492,22.30582 17.30049,33.58639 -0.0168,6.97464 -0.0168,257.22032 0.006,264.78075 -0.0167,28.86488 -26.11763,52.3473 -58.1818,52.35746 z"
     id="path5"
     style="fill:#ffffff;fill-opacity:1;stroke:none" />
</svg>

<svg width="580" height="580" viewBox="0 0 580 580" fill="none" xmlns="http://www.w3.org/2000/svg">
<g clip-path="url(#clip0)">
<path d="M66.7751 1.26863C25.4401 1.26863 2.2041 22.6396 2.2041 66.3046V516.428C2.2041 557.272 23.0981 578.657 64.3961 578.657H516.42C557.727 578.657 578.649 558.341 578.649 516.428V66.3046C578.649 23.7036 557.727 1.26863 515.127 1.26863C515.124 1.26863 66.6331 1.12563 66.7751 1.26863V1.26863Z" fill="#111111" stroke="#EEEEEE" stroke-width="3.408"/>
<path d="M443.12 347.689C443.839 369.721 443.055 356.189 445.082 373.886C447.213 392.476 449.659 397.268 446.944 432.507C441.198 507.067 408.467 544.785 408.467 544.785C408.467 544.785 368.285 486.755 369.325 431.66C369.325 385.92 384.538 387.764 386.858 347.796L443.12 347.689Z" fill="white" fill-opacity="0.75"/>
<path d="M414.506 45.7871C391.552 45.7871 375.217 60.5965 375.217 89.7034L375.016 298.032C375.016 310.506 380.377 319.975 380.377 319.975L448.129 320.185C448.129 320.185 456.142 310.506 456.119 298.032L455.734 91.7569C455.676 60.5713 437.46 45.7871 414.506 45.7871ZM437.402 279.644H393.025V256.774H437.402V279.644ZM437.402 227.667L393.025 227.667V204.797H437.402V227.667Z" fill="white"/>
<path d="M144.695 145.468C144.695 124.809 144.695 73.0762 144.712 72.2701C144.706 65.9464 147.438 60.0032 152.4 55.537C157.368 51.0658 163.965 48.6124 170.991 48.6074C178.017 48.6023 184.626 51.0658 189.599 55.542C194.555 60.0032 197.287 65.9464 197.303 72.2801C197.303 73.1313 197.292 124.884 197.286 145.468H144.695Z" fill="white" fill-opacity="0.825397"/>
<path d="M170.985 546.583C155.448 546.588 140.84 541.15 129.843 531.251C118.861 521.368 112.815 508.215 112.809 494.22C112.809 493.74 112.815 492.273 112.809 490.044L132.04 490.049C136.39 490.05 139.906 486.885 139.906 482.97C139.906 481.007 139.027 479.235 137.603 477.953C136.179 476.671 134.209 475.88 132.04 475.88H112.815C112.815 468.81 112.815 460.018 112.815 449.984H143.166C147.516 449.984 151.031 446.82 151.031 442.904C151.031 440.952 150.153 439.179 148.728 437.897C147.304 436.616 145.335 435.825 143.166 435.825H112.815C112.821 427.668 112.815 418.971 112.815 409.929L132.04 409.929C136.39 409.929 139.906 406.764 139.906 402.849C139.906 400.896 139.027 399.124 137.603 397.842C136.179 396.56 134.209 395.769 132.04 395.769H112.815C112.815 387.268 112.815 378.596 112.815 369.873H143.166C147.516 369.873 151.031 366.709 151.031 362.794C151.031 360.841 150.153 359.069 148.728 357.787C147.304 356.505 145.335 355.714 143.166 355.714H112.815C112.815 346.982 112.815 338.3 112.815 329.818H132.04C136.39 329.818 139.906 326.654 139.906 322.738C139.906 320.786 139.027 319.013 137.603 317.731C136.179 316.45 134.209 315.659 132.04 315.659H112.815C112.815 306.586 112.815 297.904 112.815 289.763H143.166C147.516 289.763 151.031 286.598 151.031 282.683C151.031 280.73 150.153 278.958 148.728 277.676C147.304 276.394 145.335 275.603 143.166 275.603H112.815L112.815 249.707H132.04C136.39 249.707 139.906 246.543 139.906 242.628C139.906 240.675 139.027 238.903 137.603 237.621C136.179 236.339 134.209 235.548 132.04 235.548H112.815L112.809 229.434C112.809 218.209 121.542 206.993 129.987 196.138C137.207 186.856 144.673 177.262 144.684 169.532V159.628H163.108V411.556C163.108 415.471 166.624 418.636 170.974 418.636C175.324 418.636 178.84 415.471 178.84 411.556L178.846 159.623L197.275 159.628C197.275 163.453 197.275 166.878 197.275 169.522C197.275 177.042 204.691 186.61 211.861 195.858C220.367 206.818 229.156 218.164 229.162 229.444C229.145 236.419 229.145 486.665 229.168 494.225C229.151 523.09 203.05 546.573 170.986 546.583L170.985 546.583Z" fill="white"/>
</g>
<defs>
<clipPath id="clip0">
<path d="M0 0H580V580H0V0Z" fill="white"/>
</clipPath>
</defs>
</svg>
